X:1
T: The Woeful Widow
C:
R:Jig
Q:180
K:G
M:6/8
L:1/16
d2|:e2f2e2 e2d2B2|d2B2A2 B2G2E2|G2A2G2 B2d2B2|B2A2A2 A2B2d2|
e2f2e2 e2d2B2|d2B2A2 B2G2E2|G2F2G2 B2d2B2|1A2G2G2 G4d2:|2A2G2G2 G4A2|
|:G2B2d2 g6|a2g2f2 g4e2|g2f2e2 e2d2B2|d2B2A2 B2G2E2|
G2B2d2 g6|a2g2f2 g4e2|d2B2A2 B2G2E2|1D2G2G2 G4A2:|2D2G2G2 G4||
